X: 18
T:Rollin' In
% Nottingham Music Database
S:Kevin Briggs, via EF
M:4/4
L:1/4
K:D
P:A
f/2g/2|"D"aa/2b/2 "A7/e"af|"D/f+"dd/2e/2 "G"dB|"A7"Ae c2|"D"da "A7"f2|\
"D"aa/2b/2 "F#m"af|"Bm"dd/2e/2 "E7"dB|"A7"Ae ac|"D"d3:|
K:A
P:B
e|"A"e/2^d/2e ae|"A"c3/2d/2 e2|"E7"BE GB|"A"A/2B/2c/2d/2 "E7"e2|"A"e/2^d/2e ae\
|"F#m"c3/2d/2 e2|"Bm"BB "E7"ec|"A"A3:|<end>
<start>
